Pods/ProtonCore-UIFoundations/libraries/UIFoundations/Sources/Assets.xcassets/Images/IconSet/ic-bolt.imageset/ic-bolt.svg

<svg width="24" height="24" viewBox="0 0 24 24" fill="none" xmlns="http://www.w3.org/2000/svg">
<path fill-rule="evenodd" clip-rule="evenodd" d="M8.64691 22.4117C8.33807 22.2469 8.18431 21.8903 8.27642 21.5526L10.2681 14.25L5.24999 14.25C4.95635 14.25 4.68972 14.0786 4.56775 13.8115C4.44578 13.5444 4.49091 13.2307 4.68322 13.0088L14.4332 1.75877C14.6625 1.49424 15.0442 1.42348 15.3531 1.58828C15.6619 1.75307 15.8157 2.10959 15.7236 2.4473L13.7319 9.74997L18.75 9.74997C19.0436 9.74997 19.3103 9.92133 19.4322 10.1884C19.5542 10.4555 19.5091 10.7693 19.3168 10.9912L9.56676 22.2412C9.3375 22.5057 8.95574 22.5764 8.64691 22.4117ZM17.1075 11.25L12.75 11.25C12.5162 11.25 12.2958 11.141 12.154 10.9552C12.0121 10.7694 11.9649 10.5281 12.0264 10.3026L13.4099 5.22984L6.89246 12.75L11.25 12.75C11.4837 12.75 11.7041 12.859 11.846 13.0447C11.9879 13.2305 12.0351 13.4718 11.9736 13.6973L10.5901 18.7701L17.1075 11.25Z" fill="#0C0C14"/>
</svg>

<svg xmlns="http://www.w3.org/2000/svg" width="24" height="24" viewBox="0 0 24 24">
  <g class="ic-bolt">
    <path fill-rule="evenodd" d="M8.647 22.412a.75.75 0 0 1-.37-.86l1.991-7.302H5.25a.75.75 0 0 1-.567-1.241l9.75-11.25a.75.75 0 0 1 1.29.688l-1.99 7.303h5.018a.75.75 0 0 1 .567 1.241l-9.75 11.25a.75.75 0 0 1-.92.17Zm8.46-11.162H12.75a.75.75 0 0 1-.724-.947L13.41 5.23l-6.518 7.52h4.358a.75.75 0 0 1 .724.947L10.59 18.77l6.518-7.52Z" class="Icon"/>
  </g>
</svg>
